/* XPM */
static char * prog7_xpm[] = {
"42 10 3 1",
" 	g None",
".	g #5E5E5E",
"+	g #4A4A4A",
" ...                                  ... ",
"..++++++++++++++++++++++++++++++++++    ..",
".+++++++++++++++++++++++++++++++++++     .",
".+++++++++++++++++++++++++++++++++++     .",
".+++++++++++++++++++++++++++++++++++     .",
".+++++++++++++++++++++++++++++++++++     .",
".+++++++++++++++++++++++++++++++++++     .",
".+++++++++++++++++++++++++++++++++++     .",
"..++++++++++++++++++++++++++++++++++    ..",
" ...                                  ... "};
