/* XPM */
static char * prog0_xpm[] = {
"42 10 2 1",
" 	g None",
".	g #5E5E5E",
" ...                                  ... ",
"..                                      ..",
".                                        .",
".                                        .",
".                                        .",
".                                        .",
".                                        .",
".                                        .",
"..                                      ..",
" ...                                  ... "};
